flaticon/household/table-6.svg

<svg xmlns="http://www.w3.org/2000/svg" width="32" height="32" viewBox="0 0 24 24">
    <path d="M 22.800781 16.800781 L 22.800781 8.800781 L 23.601562 8.800781 C 23.820312 8.800781 24 8.621094 24 8.398438 C 24 8.179688 23.820312 8 23.601562 8 L 14.507812 8 C 14.519531 7.96875 14.53125 7.9375 14.539062 7.902344 C 14.613281 7.515625 14.488281 7.125 14.199219 6.859375 C 13.878906 6.5625 13.671875 6.238281 13.589844 5.902344 L 13.511719 5.601562 L 12.800781 5.601562 L 12.800781 4.34375 C 13.488281 4.164062 14 3.542969 14 2.800781 L 14 0.800781 L 10.800781 0.800781 L 10.800781 2.800781 C 10.800781 3.542969 11.3125 4.164062 12 4.34375 L 12 5.601562 L 11.449219 5.601562 L 11.371094 5.902344 C 11.289062 6.238281 11.082031 6.5625 10.761719 6.859375 C 10.472656 7.125 10.34375 7.515625 10.421875 7.902344 C 10.429688 7.9375 10.441406 7.96875 10.449219 8 L 0.398438 8 C 0.179688 8 0 8.179688 0 8.398438 C 0 8.621094 0.179688 8.800781 0.398438 8.800781 L 1.199219 8.800781 L 1.199219 16.800781 C 1.199219 20.4375 0.0585938 22.589844 0.046875 22.609375 C -0.0195312 22.734375 -0.015625 22.882812 0.0585938 23.003906 C 0.128906 23.125 0.257812 23.199219 0.398438 23.199219 C 3.5625 23.199219 3.601562 17.0625 3.601562 16.800781 L 3.601562 11.601562 C 3.601562 10.71875 4.316406 10 5.199219 10 L 18.800781 10 C 19.683594 10 20.398438 10.71875 20.398438 11.601562 L 20.398438 16.800781 C 20.398438 17.0625 20.4375 23.199219 23.601562 23.199219 C 23.742188 23.199219 23.871094 23.125 23.945312 23.003906 C 24.015625 22.882812 24.019531 22.730469 23.953125 22.609375 C 23.941406 22.585938 22.800781 20.457031 22.800781 16.800781 Z M 12.800781 1.601562 L 13.199219 1.601562 L 13.199219 2.800781 C 13.199219 3.09375 13.039062 3.355469 12.800781 3.492188 Z M 11.601562 2.800781 L 11.601562 1.601562 L 12 1.601562 L 12 3.492188 C 11.761719 3.355469 11.601562 3.09375 11.601562 2.800781 Z M 11.207031 7.746094 C 11.175781 7.585938 11.265625 7.480469 11.304688 7.445312 C 11.648438 7.125 11.898438 6.773438 12.050781 6.398438 L 12.910156 6.398438 C 13.058594 6.773438 13.308594 7.125 13.65625 7.445312 C 13.695312 7.480469 13.785156 7.585938 13.753906 7.746094 C 13.726562 7.890625 13.578125 8 13.410156 8 L 11.550781 8 C 11.382812 8 11.234375 7.890625 11.207031 7.746094 Z M 2.800781 11.601562 L 2.800781 16.800781 C 2.800781 18.152344 2.472656 21.386719 1.09375 22.207031 C 1.464844 21.230469 2 19.375 2 16.800781 L 2 8.800781 L 4.800781 8.800781 L 4.800781 9.234375 C 3.667969 9.425781 2.800781 10.414062 2.800781 11.601562 Z M 5.601562 8.800781 L 18.398438 8.800781 L 18.398438 9.199219 L 5.601562 9.199219 Z M 21.199219 16.800781 L 21.199219 11.601562 C 21.199219 10.414062 20.332031 9.425781 19.199219 9.234375 L 19.199219 8.800781 L 22 8.800781 L 22 16.800781 C 22 19.375 22.535156 21.230469 22.90625 22.207031 C 21.527344 21.382812 21.199219 18.152344 21.199219 16.800781 Z M 21.199219 16.800781"/>
</svg>

<svg xmlns="http://www.w3.org/2000/svg" width="32" height="32" viewBox="0 0 24 24">
    <path d="M22.8 16.8v-8h.802a.401.401 0 0 0 0-.8h-9.094a.714.714 0 0 0 .031-.098 1.12 1.12 0 0 0-.34-1.043c-.32-.296-.527-.62-.61-.957l-.077-.3H12.8V4.344A1.6 1.6 0 0 0 14 2.8v-2h-3.2v2A1.6 1.6 0 0 0 12 4.344v1.258h-.55l-.079.3c-.082.336-.289.66-.61.957a1.11 1.11 0 0 0-.34 1.043L10.45 8H.4a.4.4 0 0 0 0 .8h.8v8c0 3.637-1.14 5.79-1.152 5.81a.396.396 0 0 0 .012.394c.07.121.199.195.34.195 3.163 0 3.203-6.137 3.203-6.398v-5.2A1.6 1.6 0 0 1 5.199 10h13.602a1.6 1.6 0 0 1 1.597 1.602V16.8c0 .262.04 6.398 3.204 6.398.14 0 .27-.074.343-.195a.405.405 0 0 0 .008-.395c-.012-.023-1.152-2.152-1.152-5.808zm-10-15.198h.4V2.8a.8.8 0 0 1-.4.691zM11.603 2.8V1.6H12v1.891a.8.8 0 0 1-.398-.691zm-.395 4.945a.321.321 0 0 1 .098-.3c.343-.321.593-.673.746-1.048h.86c.148.375.398.727.745 1.047.04.035.13.14.098.301-.027.145-.176.254-.344.254h-1.86c-.167 0-.316-.11-.343-.254zm-8.406 3.856V16.8c0 1.351-.328 4.586-1.707 5.406.37-.977.906-2.832.906-5.406v-8h2.8v.433c-1.132.192-2 1.18-2 2.368zM5.6 8.8h12.797v.398H5.602zm15.598 8v-5.2a2.405 2.405 0 0 0-2-2.367v-.433H22v8c0 2.574.535 4.43.906 5.406-1.379-.824-1.707-4.055-1.707-5.406zm0 0"/>
</svg>
